dist/img/orig/benefits-Resourceful — копия.svg

<svg width="41" height="35" viewBox="0 0 41 35" fill="none" xmlns="http://www.w3.org/2000/svg">
<path fill-rule="evenodd" clip-rule="evenodd" d="M29.8347 13.125L21.9872 1.37164C21.6467 0.869974 21.0734 0.619141 20.5001 0.619141C19.9267 0.619141 19.3534 0.869974 19.013 1.38956L11.1655 13.125L2.58341 13.125C1.598 13.125 0.791748 13.9312 0.791748 14.9166C0.791748 15.0779 0.809665 15.2391 0.863415 15.4004L5.41425 32.0091C5.82633 33.5141 7.20591 34.625 8.85425 34.625L32.1459 34.625C33.7942 34.625 35.1738 33.5141 35.6038 32.0091L40.1547 15.4004L40.2084 14.9166C40.2084 13.9312 39.4022 13.125 38.4167 13.125L29.8347 13.125V13.125ZM15.1251 13.125L20.5001 5.24163L25.8751 13.125L15.1251 13.125V13.125ZM20.5001 27.4583C18.5292 27.4583 16.9167 25.8458 16.9167 23.875C16.9167 21.9042 18.5292 20.2917 20.5001 20.2917C22.4709 20.2917 24.0834 21.9042 24.0834 23.875C24.0834 25.8458 22.4709 27.4583 20.5001 27.4583V27.4583Z" fill="#040858"/>
</svg>

<svg width="41" height="35" fill="none" xmlns="http://www.w3.org/2000/svg"><path fill-rule="evenodd" clip-rule="evenodd" d="M29.835 13.125L21.987 1.372C21.647.87 21.073.619 20.5.619c-.573 0-1.147.251-1.487.77l-7.848 11.736H2.583c-.985 0-1.791.806-1.791 1.792 0 .16.018.322.071.483l4.551 16.61a3.563 3.563 0 003.44 2.615h23.292a3.6 3.6 0 003.458-2.616l4.55-16.609.054-.483c0-.986-.806-1.792-1.791-1.792h-8.582zm-14.71 0L20.5 5.242l5.375 7.883h-10.75zM20.5 27.458a3.594 3.594 0 01-3.583-3.583 3.594 3.594 0 013.583-3.583 3.594 3.594 0 013.583 3.583 3.594 3.594 0 01-3.583 3.583z" fill="#040858"/></svg>
